X:1
T:Title
%%score ( 1 2 ) ( 3 4 )
L:1/8
Q:1/4=117
M:3/4
K:G
V:1 treble nm="Grand Piano, Soprano"
V:2 treble 
V:3 bass nm="Choir Pad, Harlesden, Charles Reeves"
V:4 bass 
V:1
 [GB]2 [GA]2 [GB]2 | [FA]2 G4 | D2 ^C2 [CE]2 | D6 | [Fc]2 [FB]2 [Fc]2 | [FB]2 [FA]4 | %6
w: By~Charles~Reeves * *||||||
 D2 [DF]2 [Dc]2 | [DB]6 | [GB]2 [GA]2 [GB]2 | [FA]2 G4 | [=FG]2 [FA]2 [FG]2 | [Ec]6 | %12
w: ||||||
 [Ec]2 [EA]2 [Ge]2 | [Gd]2 [GB]4 | [EA]2 [Ec]2 F-[CF] | [B,G]6- | [B,G]2 z2 z2 |] %17
w: |||||
V:2
 x6 | x6 | x6 | x6 | x6 | x6 | x6 | x6 | x6 | x6 | x6 | x6 | x6 | x6 | z2 z2 .D2 | x6 | x6 |] %17
V:3
 [G,D]2 [G,C]2 [G,D]2 | [D,C]2 [G,B,]4 | [G,B,]2 [G,_B,]2 [G,B,]2 | [G,B,]6 | %4
 [D,D]2 [D,D]2 [D,D]2 | [D,D]2 [D,C]4 | [D,C]2 [D,A,]2 [D,F,]2 | G,6 | [G,D]2 [G,C]2 [G,D]2 | %9
 [D,C]2 [G,B,]4 | [G,B,]2 [G,C]2 [G,B,]2 | C2 G,2 ^G,2 | [A,,A,]2 [C,A,]2 [^C,A,]2 | %13
 [D,B,]2 [D,D]4 | [D,C]2 [D,A,]2 [D,A,]2 | [G,,G,]6- | [G,,G,]2 z2 z2 |] %17
V:4
 x6 | x6 | x6 | x6 | x6 | x6 | x6 | x6 | x6 | x6 | x6 | C,6 | x6 | x6 | x6 | x6 | x6 |] %17

